img/img_arriere_plan/parallax_soleil.svg

<svg width="593" height="623" viewBox="0 0 593 623" fill="none" xmlns="http://www.w3.org/2000/svg">
<path fill-rule="evenodd" clip-rule="evenodd" d="M302.499 0L321.307 59.5945C372.934 62.9587 420.517 80.4443 459.887 108.054L509.495 78.053L486.746 129.617C513.324 153.965 534.646 183.541 548.916 216.623H592.096L558.234 241.953C565.24 264.8 568.999 288.979 568.999 314C568.999 345.631 562.992 375.918 552.01 403.867L583.959 431.955L540.723 428.535C522.694 462.856 496.816 492.737 465.349 516.012L481.48 567.127L437.361 534.125C397.93 556.292 352.013 569 302.999 569C299.646 569 296.307 568.94 292.984 568.823L269.455 622.156L257.489 565.282C225.338 559.969 195.163 549.123 168.067 533.804L123.519 567.127L139.84 515.411C97.3831 483.757 65.1994 440.038 48.8916 389.623L0.617188 385.804L41.5213 361.067C38.552 345.812 36.9995 330.08 36.9995 314C36.9995 289.201 40.6921 265.229 47.5791 242.562L12.9028 216.623H57.0826C77.9699 168.2 113.967 127.288 159.439 99.2892L148.97 49.5299L188.114 83.9445C217.397 70.4815 249.648 62.0051 283.67 59.663L302.499 0Z" fill="#FFCE51"/>
</svg>

<svg xmlns="http://www.w3.org/2000/svg" width="593" height="623" fill="none"><path fill="#FFCE51" fill-rule="evenodd" d="m302.499 0 18.808 59.594c51.627 3.365 99.21 20.85 138.58 48.46l49.608-30.001-22.749 51.564c26.578 24.348 47.9 53.924 62.17 87.006h43.18l-33.862 25.33c7.006 22.847 10.765 47.026 10.765 72.047 0 31.631-6.007 61.918-16.989 89.867l31.949 28.088-43.236-3.42c-18.029 34.321-43.907 64.202-75.374 87.477l16.131 51.115-44.119-33.002C397.93 556.292 352.013 569 302.999 569c-3.353 0-6.692-.06-10.015-.177l-23.529 53.333-11.966-56.874c-32.151-5.313-62.326-16.159-89.422-31.478l-44.548 33.323 16.321-51.716c-42.457-31.654-74.64-75.373-90.948-125.788L.617 385.804l40.904-24.737A246.136 246.136 0 0 1 37 314c0-24.799 3.693-48.771 10.58-71.438l-34.676-25.939h44.18C77.97 168.2 113.967 127.288 159.439 99.289L148.97 49.53l39.144 34.416c29.283-13.463 61.534-21.94 95.556-24.282L302.499 0Z" clip-rule="evenodd"/></svg>
